X: 212
T: WALTZ: Trip to Skye
C: C: John Whelan; S: Various
C: Set Leaders: Olya, Tania, Oliushka, Andrey
Z: Oleg Naumov arr.; shanachie at The Session
N: https://thesession.org/members/26966/sets/92071
R: Waltz
M: 3/4
L: 1/8
Q: 1/4=144
K: Bmin
|:"Bm"f2 ed cB|"A"ce AB ce|"G"d2 ce dc|"A"d2 B2 B2|
"Bm"f2 ed cB|"A"ce AB ce|"G"d2 ce dc|1"A"dc BA FA:|2"A"dc B A FE||
|:"Bm"F2 Bc d2|"Bm"F2 Bc dB|"A"ce AB ce|"A"dc BA FE|
"G"F2 Bc d2|"G"F2 Bc dB|"A"ce AB ce|1 "A"d2 c/d/c B/c/B:|2 "A"d2 B2 B2||